X: 89
T: Królu na wysokim niebie,
C: Mikołaj Gomółka
%%abc-version 2.0
%%abcx-abcm2ps-target-version 5.9.1 (29 Sep 2008)
%%abc-creator hum2abc beta
%%abcx-conversion-date 2021/10/04 07:59:10
%%abc-edited-by Anna Matuszewska
%%abcx-initial-encoding-date 2020-02-15
%%humdrum-veritas 2237740151
%%humdrum-veritas-data 4228299075
%%linebreak <none>
%%barnumbers 0
L: 1/4
M: C|
N: Derived from pl-wn--sd-xvi-qu-273--090_gomolka-mikolaj--krolu-na-wysokim-niebie.krn
%%staves [1 2 3 4]
V: 1 clef=treble
V: 2
V: 3 clef=alto
V: 4
K: F
[V:1] B4c2c2 | 
[V:2] G4G2G2 | 
[V:3] D4E2E2 | 
[V:4] G,4C,2C2 [|] 
[V:1] f4e2d4 | 
[V:2] ABc4B2 | 
[V:3] F2A2G3F | 
[V:4] A,2F,2C2G,2 [|] 
[V:1] ^c2d2d2 | 
[V:2] A2>G2F2B2 | 
[V:3] EDE2D2F2 | 
[V:4] A,4B,2B,2 [|] 
[V:1] c2f4e2 | 
[V:2] A4A2GA | 
[V:3] F2C2>D2E2 | 
[V:4] F,2>G,2A,B,C2 [|] 
[V:1] d2c4=B2 | 
[V:2] B2G2A2GF | 
[V:3] F2E2D4 | 
[V:4] B,2C2F,2G,2 [|] 
[V:1] c2c2f3e | 
[V:2] E2FEFGA2 | 
[V:3] C2C2A,2A,2 | 
[V:4] C,2F,2>E,2D,C, [|] 
[V:1] dcB2A2A4 | 
[V:2] BA2GAGFE | 
[V:3] D4C2D2 | 
[V:4] B,,C,D,E,F,2D,2 [|] 
[V:1] G2A4 | 
[V:2] DCDEF2C2 | 
[V:3] B,4A,2F,2 | 
[V:4] G,4F,2F,2 [|] 
[V:1] F2G2ABcB | 
[V:2] D2>E2F2E2 | 
[V:3] A,2B,2C2C4 | 
[V:4] D,2G,2F,G,A,G, [|] 
[V:1] AGF2G4 | 
[V:2] F2>E2DCDE | 
[V:3] D2B,4 | 
[V:4] F,E,D,2G,4 [|] 
[V:1] A8 | 
[V:2] ^F8 | 
[V:3] A,8 | 
[V:4] D,8 | 


